X:5371
T:Quick Step 2d. Regt.
O:england
M:2/4
L:1/8
K:G
d3e| dBAG| FGAB| A2Bd| d3g| dBAG| DGG2:: \
dBAG| dBAG| Bcde| d2g2|
dBAG| dBAG| FGAB| A4| \
dBAG| dBAG| Bcde| d2g2| d3e| dBAG| DG G2:|
